diagrams/logos/CSC_Logo.svg

<?xml version="1.0" encoding="UTF-8" standalone="no"?>
<svg
   xmlns:dc="http://purl.org/dc/elements/1.1/"
   xmlns:cc="http://creativecommons.org/ns#"
   xmlns:rdf="http://www.w3.org/1999/02/22-rdf-syntax-ns#"
   xmlns:svg="http://www.w3.org/2000/svg"
   xmlns="http://www.w3.org/2000/svg"
   xmlns:sodipodi="http://sodipodi.sourceforge.net/DTD/sodipodi-0.dtd"
   xmlns:inkscape="http://www.inkscape.org/namespaces/inkscape"
   width="179.69283"
   height="101.92062"
   id="svg3967"
   sodipodi:version="0.32"
   inkscape:version="1.0.2 (e86c8708, 2021-01-15)"
   version="1.0"
   sodipodi:docname="CSC_Logo.svg"
   inkscape:output_extension="org.inkscape.output.svg.inkscape">
  <defs
     id="defs3969">
    <inkscape:perspective
       sodipodi:type="inkscape:persp3d"
       inkscape:vp_x="0 : 506.46789 : 1"
       inkscape:vp_y="0 : 1000 : 0"
       inkscape:vp_z="744.09448 : 506.46789 : 1"
       inkscape:persp3d-origin="372.04724 : 331.07419 : 1"
       id="perspective3975" />
    <inkscape:perspective
       id="perspective3984"
       inkscape:persp3d-origin="372.04724 : 331.07419 : 1"
       inkscape:vp_z="744.09448 : 506.46789 : 1"
       inkscape:vp_y="0 : 1000 : 0"
       inkscape:vp_x="0 : 506.46789 : 1"
       sodipodi:type="inkscape:persp3d" />
  </defs>
  <sodipodi:namedview
     id="base"
     pagecolor="#ffffff"
     bordercolor="#666666"
     borderopacity="1.0"
     gridtolerance="10000"
     guidetolerance="10"
     objecttolerance="10"
     inkscape:pageopacity="0.0"
     inkscape:pageshadow="2"
     inkscape:zoom="1.6113937"
     inkscape:cx="100.62157"
     inkscape:cy="147.26405"
     inkscape:document-units="px"
     inkscape:current-layer="layer1"
     showgrid="false"
     inkscape:window-width="1703"
     inkscape:window-height="847"
     inkscape:window-x="423"
     inkscape:window-y="25"
     inkscape:document-rotation="0"
     fit-margin-top="0"
     fit-margin-left="0"
     fit-margin-right="0"
     fit-margin-bottom="0"
     inkscape:window-maximized="0" />
  <metadata
     id="metadata3972">
    <rdf:RDF>
      <cc:Work
         rdf:about="">
        <dc:format>image/svg+xml</dc:format>
        <dc:type
           rdf:resource="http://purl.org/dc/dcmitype/StillImage" />
        <dc:title></dc:title>
      </cc:Work>
    </rdf:RDF>
  </metadata>
  <g
     inkscape:label="Layer 1"
     inkscape:groupmode="layer"
     id="layer1"
     transform="translate(-404.84149,-471.37912)">
    <path
       style="display:inline;overflow:visible;visibility:visible;fill:#e70021;fill-opacity:1;fill-rule:nonzero;stroke:#4b2c1a;stroke-width:0;stroke-linecap:butt;stroke-linejoin:miter;stroke-miterlimit:4;stroke-dashoffset:0;stroke-opacity:1;marker:none;marker-start:none;marker-mid:none;marker-end:none;enable-background:accumulate"
       d="m 432.8963,471.37912 h 151.63802 v 74.93117 l -26.63431,26.98945 H 404.84149 v -73.51071 z"
       id="rect3999"
       sodipodi:nodetypes="ccccccc" />
    <path
       style="font-style:normal;font-weight:normal;font-size:967.189px;line-height:125%;font-family:'Bitstream Vera Sans';text-align:start;text-anchor:start;fill:#ffffff;fill-opacity:1;stroke:none;stroke-width:1px;stroke-linecap:butt;stroke-linejoin:miter;stroke-opacity:1"
       d="m 452.23106,548.53959 c -3.3575,0 -6.5141,-0.61003 -9.46981,-1.83009 -2.95574,-1.22005 -5.51928,-2.92536 -7.69063,-5.11596 -2.17136,-2.19057 -3.89519,-4.78783 -5.17149,-7.79179 -1.27631,-3.00394 -1.91447,-6.26776 -1.91446,-9.79146 v -0.13648 c -10e-6,-3.43267 0.62687,-6.65098 1.88064,-9.65497 1.25375,-3.00392 2.97758,-5.62393 5.17149,-7.86004 2.1939,-2.23603 4.80219,-3.98651 7.82489,-5.25141 3.02267,-1.26481 6.32548,-1.89724 9.90845,-1.89729 2.4173,5e-5 4.61121,0.23718 6.58172,0.71136 4.94946,1.13722 9.13176,4.15477 12.71703,7.64904 l -8.50729,7.88342 c -4.30731,-4.31835 -9.96246,-5.41153 -15.45974,-3.26781 -1.41019,0.54992 -2.54136,1.54681 -3.52658,2.67585 -0.98526,1.1291 -1.75768,2.4615 -2.31724,3.99723 -0.55959,1.53577 -0.83938,3.16251 -0.83937,4.88021 v 0.13441 c -1e-5,1.76186 0.27978,3.42203 0.83937,4.98051 0.55956,1.55852 1.33198,2.90264 2.31724,4.03239 0.98522,1.12976 2.16074,2.02206 3.52658,2.67688 1.36578,0.65483 2.87678,0.98226 4.533,0.98225 1.20932,10e-6 2.31754,-0.13544 3.32468,-0.40635 3.26032,-1.05309 6.23448,-2.835 8.58552,-5.35273 l 7.85999,8.57384 c -1.12058,1.53714 -1.69186,1.432 -3.01253,2.74165 -1.32076,1.30966 -2.82083,2.43873 -4.50021,3.3872 -1.67946,0.94848 -3.56009,1.69395 -5.64191,2.23642 -2.08189,0.54248 -4.42166,0.81372 -7.01934,0.81372 z m 44.89959,-0.13649 c -4.20882,0 -8.20513,-0.65482 -11.98894,-1.96449 -3.78383,-1.30966 -6.69815,-3.27484 -9.60878,-5.89554 l 8.33626,-8.52452 c 4.70073,3.79527 7.61825,5.47646 13.08151,5.47645 1.74636,10e-6 3.07869,-0.2826 3.997,-0.84784 0.91825,-0.56521 1.37739,-1.36686 1.37742,-2.40496 v -0.13648 c -3e-5,-0.49627 -0.11208,-0.93639 -0.33615,-1.32034 -0.22414,-0.38392 -0.63853,-0.75683 -1.24317,-1.11873 -0.6047,-0.36187 -1.41059,-0.71203 -2.41767,-1.05049 -1.00713,-0.33843 -2.31692,-0.68824 -3.92936,-1.04945 -2.50753,-0.58726 -4.1867,-1.23106 -6.33618,-1.93141 -2.1495,-0.7003 -4.01887,-1.60397 -5.60809,-2.711 -1.58924,-1.10698 -2.843,-2.48488 -3.76128,-4.13371 -0.91828,-1.64876 -1.37742,-3.69253 -1.37742,-6.13129 v -0.13648 c 0,-2.2126 0.41438,-4.24499 1.24317,-6.09717 0.82877,-1.8521 2.03777,-3.45574 3.62701,-4.81094 1.58923,-1.35511 3.50334,-2.4056 5.74236,-3.15147 9.15093,-3.10615 18.48596,-0.39366 25.01379,5.27098 l -8.09116,8.57873 c -2.94517,-2.38143 -5.91921,-3.91841 -9.66757,-4.05825 -1.56739,4e-5 -2.74292,0.29367 -3.52659,0.88092 -0.7837,0.58731 -1.17554,1.3097 -1.17552,2.16715 v 0.13647 c -2e-5,0.54183 0.12297,1.01606 0.36895,1.42272 0.24595,0.40671 0.67128,0.77928 1.27597,1.11769 0.60465,0.33848 1.43309,0.67726 2.48531,1.01637 1.05218,0.33916 2.38451,0.68933 3.99699,1.05048 2.6865,0.58731 5.11545,1.27626 7.28683,2.06685 2.17133,0.79065 4.01849,1.7505 5.54148,2.87954 1.52292,1.12909 2.68717,2.49562 3.49276,4.09959 0.80551,1.60401 1.20828,3.51302 1.20832,5.72702 v 0.13441 c -4e-5,2.44012 -0.45884,4.60864 -1.3764,6.50558 -0.91764,1.89694 -2.20487,3.51162 -3.86171,4.84403 -1.65691,1.33241 -3.6496,2.34878 -5.97807,3.04909 -2.32854,0.70033 -4.92556,1.05049 -7.79107,1.05049 z"
       id="text3990"
       sodipodi:nodetypes="csssccsssscccsssccsssscccssscccsccssccssscsssccssccccsccssscsssccssscc" />
    <path
       style="font-style:normal;font-weight:normal;font-size:967.189px;line-height:125%;font-family:'Bitstream Vera Sans';text-align:start;text-anchor:start;fill:#ffffff;fill-opacity:1;stroke:none;stroke-width:1px;stroke-linecap:butt;stroke-linejoin:miter;stroke-opacity:1"
       d="m 540.97467,548.53959 c -3.3575,0 -6.5141,-0.61003 -9.46981,-1.83009 -2.95574,-1.22005 -5.51928,-2.92536 -7.69063,-5.11596 -2.17136,-2.19057 -3.89519,-4.78783 -5.17149,-7.79179 -1.27631,-3.00394 -1.91447,-6.26776 -1.91446,-9.79146 v -0.13648 c -1e-5,-3.43267 0.62687,-6.65098 1.88064,-9.65497 1.25375,-3.00392 2.97758,-5.62393 5.17149,-7.86004 2.1939,-2.23603 4.80219,-3.98651 7.82489,-5.25141 3.02267,-1.26481 6.32548,-1.89724 9.90845,-1.89729 2.4173,5e-5 4.61121,0.23718 6.58172,0.71136 4.94946,1.13722 9.13176,4.15477 12.71703,7.64904 l -8.50729,7.88342 c -4.30731,-4.31835 -9.96246,-5.41153 -15.45974,-3.26781 -1.41019,0.54992 -2.54136,1.54681 -3.52658,2.67585 -0.98526,1.1291 -1.75768,2.4615 -2.31724,3.99723 -0.55959,1.53577 -0.83938,3.16251 -0.83937,4.88021 v 0.13441 c -10e-6,1.76186 0.27978,3.42203 0.83937,4.98051 0.55956,1.55852 1.33198,2.90264 2.31724,4.03239 0.98522,1.12976 2.16074,2.02206 3.52658,2.67688 1.36578,0.65483 2.87678,0.98226 4.533,0.98225 1.20932,10e-6 2.31754,-0.13544 3.32468,-0.40635 3.26032,-1.05309 6.23448,-2.835 8.58552,-5.35273 l 7.85999,8.57384 c -1.12058,1.53714 -1.69186,1.432 -3.01253,2.74165 -1.32076,1.30966 -2.82083,2.43873 -4.50021,3.3872 -1.67946,0.94848 -3.56009,1.69395 -5.64191,2.23642 -2.08189,0.54248 -4.42166,0.81372 -7.01934,0.81372 z"
       id="path3997"
       sodipodi:nodetypes="csssccsssscccsssccsssscccssscc" />
  </g>
</svg>

<?xml version="1.0" encoding="UTF-8" standalone="no"?>
<!-- Created with Inkscape (http://www.inkscape.org/) -->
<svg
   xmlns:dc="http://purl.org/dc/elements/1.1/"
   xmlns:cc="http://creativecommons.org/ns#"
   xmlns:rdf="http://www.w3.org/1999/02/22-rdf-syntax-ns#"
   xmlns:svg="http://www.w3.org/2000/svg"
   xmlns="http://www.w3.org/2000/svg"
   xmlns:sodipodi="http://sodipodi.sourceforge.net/DTD/sodipodi-0.dtd"
   xmlns:inkscape="http://www.inkscape.org/namespaces/inkscape"
   width="201.68875"
   height="121.63383"
   id="svg3967"
   sodipodi:version="0.32"
   inkscape:version="0.46"
   version="1.0"
   sodipodi:docname="CSC logo.svg"
   inkscape:output_extension="org.inkscape.output.svg.inkscape">
  <defs
     id="defs3969">
    <inkscape:perspective
       sodipodi:type="inkscape:persp3d"
       inkscape:vp_x="0 : 526.18109 : 1"
       inkscape:vp_y="0 : 1000 : 0"
       inkscape:vp_z="744.09448 : 526.18109 : 1"
       inkscape:persp3d-origin="372.04724 : 350.78739 : 1"
       id="perspective3975" />
    <inkscape:perspective
       id="perspective3984"
       inkscape:persp3d-origin="372.04724 : 350.78739 : 1"
       inkscape:vp_z="744.09448 : 526.18109 : 1"
       inkscape:vp_y="0 : 1000 : 0"
       inkscape:vp_x="0 : 526.18109 : 1"
       sodipodi:type="inkscape:persp3d" />
  </defs>
  <sodipodi:namedview
     id="base"
     pagecolor="#ffffff"
     bordercolor="#666666"
     borderopacity="1.0"
     gridtolerance="10000"
     guidetolerance="10"
     objecttolerance="10"
     inkscape:pageopacity="0.0"
     inkscape:pageshadow="2"
     inkscape:zoom="1.6113937"
     inkscape:cx="497.17898"
     inkscape:cy="478.53477"
     inkscape:document-units="px"
     inkscape:current-layer="layer1"
     showgrid="false"
     inkscape:window-width="1024"
     inkscape:window-height="721"
     inkscape:window-x="-4"
     inkscape:window-y="-4" />
  <metadata
     id="metadata3972">
    <rdf:RDF>
      <cc:Work
         rdf:about="">
        <dc:format>image/svg+xml</dc:format>
        <dc:type
           rdf:resource="http://purl.org/dc/dcmitype/StillImage" />
      </cc:Work>
    </rdf:RDF>
  </metadata>
  <g
     inkscape:label="Layer 1"
     inkscape:groupmode="layer"
     id="layer1"
     transform="translate(-393.44821,-462.81042)">
    <path
       style="fill:#e70021;fill-opacity:1;fill-rule:nonzero;stroke:#4b2c1a;stroke-width:0;stroke-linecap:butt;stroke-linejoin:miter;marker:none;marker-start:none;marker-mid:none;marker-end:none;stroke-miterlimit:4;stroke-dashoffset:0;stroke-opacity:1;visibility:visible;display:inline;overflow:visible;enable-background:accumulate"
       d="M 432.8963,471.37912 L 584.53432,471.37912 L 584.53432,546.31029 L 557.90001,573.29974 L 404.84149,573.29974 L 404.84149,499.78903 L 432.8963,471.37912 z"
       id="rect3999"
       sodipodi:nodetypes="ccccccc" />
    <path
       style="font-size:967.18939209px;font-style:normal;font-weight:normal;text-align:start;line-height:125%;text-anchor:start;fill:#ffffff;fill-opacity:1;stroke:none;stroke-width:1px;stroke-linecap:butt;stroke-linejoin:miter;stroke-opacity:1;font-family:Bitstream Vera Sans"
       d="M 452.23106,548.53959 C 448.87356,548.53959 445.71696,547.92956 442.76125,546.7095 C 439.80551,545.48945 437.24197,543.78414 435.07062,541.59354 C 432.89926,539.40297 431.17543,536.80571 429.89913,533.80175 C 428.62282,530.79781 427.98466,527.53399 427.98467,524.01029 L 427.98467,523.87381 C 427.98466,520.44114 428.61154,517.22283 429.86531,514.21884 C 431.11906,511.21492 432.84289,508.59491 435.0368,506.3588 C 437.2307,504.12277 439.83899,502.37229 442.86169,501.10739 C 445.88436,499.84258 449.18717,499.21015 452.77014,499.2101 C 455.18744,499.21015 457.38135,499.44728 459.35186,499.92146 C 464.30132,501.05868 468.48362,504.07623 472.06889,507.5705 L 463.5616,515.45392 C 459.25429,511.13557 453.59914,510.04239 448.10186,512.18611 C 446.69167,512.73603 445.5605,513.73292 444.57528,514.86196 C 443.59002,515.99106 442.8176,517.32346 442.25804,518.85919 C 441.69845,520.39496 441.41866,522.0217 441.41867,523.7394 L 441.41867,523.87381 C 441.41866,525.63567 441.69845,527.29584 442.25804,528.85432 C 442.8176,530.41284 443.59002,531.75696 444.57528,532.88671 C 445.5605,534.01647 446.73602,534.90877 448.10186,535.56359 C 449.46764,536.21842 450.97864,536.54585 452.63486,536.54584 C 453.84418,536.54585 454.9524,536.4104 455.95954,536.13949 C 459.21986,535.0864 462.19402,533.30449 464.54506,530.78676 L 472.40505,539.3606 C 471.28447,540.89774 470.71319,540.7926 469.39252,542.10225 C 468.07176,543.41191 466.57169,544.54098 464.89231,545.48945 C 463.21285,546.43793 461.33222,547.1834 459.2504,547.72587 C 457.16851,548.26835 454.82874,548.53959 452.23106,548.53959 L 452.23106,548.53959 z M 497.13065,548.4031 C 492.92183,548.4031 488.92552,547.74828 485.14171,546.43861 C 481.35788,545.12895 478.44356,543.16377 475.53293,540.54307 L 483.86919,532.01855 C 488.56992,535.81382 491.48744,537.49501 496.9507,537.495 C 498.69706,537.49501 500.02939,537.2124 500.9477,536.64716 C 501.86595,536.08195 502.32509,535.2803 502.32512,534.2422 L 502.32512,534.10572 C 502.32509,533.60945 502.21304,533.16933 501.98897,532.78538 C 501.76483,532.40146 501.35044,532.02855 500.7458,531.66665 C 500.1411,531.30478 499.33521,530.95462 498.32813,530.61616 C 497.321,530.27773 496.01121,529.92792 494.39877,529.56671 C 491.89124,528.97945 490.21207,528.33565 488.06259,527.6353 C 485.91309,526.935 484.04372,526.03133 482.4545,524.9243 C 480.86526,523.81732 479.6115,522.43942 478.69322,520.79059 C 477.77494,519.14183 477.3158,517.09806 477.3158,514.6593 L 477.3158,514.52282 C 477.3158,512.31022 477.73018,510.27783 478.55897,508.42565 C 479.38774,506.57355 480.59674,504.96991 482.18598,503.61471 C 483.77521,502.2596 485.68932,501.20911 487.92834,500.46324 C 497.07927,497.35709 506.4143,500.06958 512.94213,505.73422 L 504.85097,514.31295 C 501.9058,511.93152 498.93176,510.39454 495.1834,510.2547 C 493.61601,510.25474 492.44048,510.54837 491.65681,511.13562 C 490.87311,511.72293 490.48127,512.44532 490.48129,513.30277 L 490.48129,513.43924 C 490.48127,513.98107 490.60426,514.4553 490.85024,514.86196 C 491.09619,515.26867 491.52152,515.64124 492.12621,515.97965 C 492.73086,516.31813 493.5593,516.65691 494.61152,516.99602 C 495.6637,517.33518 496.99603,517.68535 498.60851,518.0465 C 501.29501,518.63381 503.72396,519.32276 505.89534,520.11335 C 508.06667,520.904 509.91383,521.86385 511.43682,522.99289 C 512.95974,524.12198 514.12399,525.48851 514.92958,527.09248 C 515.73509,528.69649 516.13786,530.6055 516.1379,532.8195 L 516.1379,532.95391 C 516.13786,535.39403 515.67906,537.56255 514.7615,539.45949 C 513.84386,541.35643 512.55663,542.97111 510.89979,544.30352 C 509.24288,545.63593 507.25019,546.6523 504.92172,547.35261 C 502.59318,548.05294 499.99616,548.4031 497.13065,548.4031 L 497.13065,548.4031 z"
       id="text3990"
       sodipodi:nodetypes="csssccsssscccsssccsssscccssscccsccssccssscsssccssccccsccssscsssccssscc" />
    <path
       style="font-size:967.18939209px;font-style:normal;font-weight:normal;text-align:start;line-height:125%;text-anchor:start;fill:#ffffff;fill-opacity:1;stroke:none;stroke-width:1px;stroke-linecap:butt;stroke-linejoin:miter;stroke-opacity:1;font-family:Bitstream Vera Sans"
       d="M 540.97467,548.53959 C 537.61717,548.53959 534.46057,547.92956 531.50486,546.7095 C 528.54912,545.48945 525.98558,543.78414 523.81423,541.59354 C 521.64287,539.40297 519.91904,536.80571 518.64274,533.80175 C 517.36643,530.79781 516.72827,527.53399 516.72828,524.01029 L 516.72828,523.87381 C 516.72827,520.44114 517.35515,517.22283 518.60892,514.21884 C 519.86267,511.21492 521.5865,508.59491 523.78041,506.3588 C 525.97431,504.12277 528.5826,502.37229 531.6053,501.10739 C 534.62797,499.84258 537.93078,499.21015 541.51375,499.2101 C 543.93105,499.21015 546.12496,499.44728 548.09547,499.92146 C 553.04493,501.05868 557.22723,504.07623 560.8125,507.5705 L 552.30521,515.45392 C 547.9979,511.13557 542.34275,510.04239 536.84547,512.18611 C 535.43528,512.73603 534.30411,513.73292 533.31889,514.86196 C 532.33363,515.99106 531.56121,517.32346 531.00165,518.85919 C 530.44206,520.39496 530.16227,522.0217 530.16228,523.7394 L 530.16228,523.87381 C 530.16227,525.63567 530.44206,527.29584 531.00165,528.85432 C 531.56121,530.41284 532.33363,531.75696 533.31889,532.88671 C 534.30411,534.01647 535.47963,534.90877 536.84547,535.56359 C 538.21125,536.21842 539.72225,536.54585 541.37847,536.54584 C 542.58779,536.54585 543.69601,536.4104 544.70315,536.13949 C 547.96347,535.0864 550.93763,533.30449 553.28867,530.78676 L 561.14866,539.3606 C 560.02808,540.89774 559.4568,540.7926 558.13613,542.10225 C 556.81537,543.41191 555.3153,544.54098 553.63592,545.48945 C 551.95646,546.43793 550.07583,547.1834 547.99401,547.72587 C 545.91212,548.26835 543.57235,548.53959 540.97467,548.53959 L 540.97467,548.53959 z"
       id="path3997"
       sodipodi:nodetypes="csssccsssscccsssccsssscccssscc" />
  </g>
</svg>
